X:1
T:Concerto for Violin and Organ in F major, RV 542
T:Elegie
T:G. Fauré
C:Vivaldi
%%score 1 2
L:1/8
M:4/4
K:Eb
V:1 bass nm="Violoncello" snm="Vc."
V:2 bass nm="Violoncello" snm="Vc."
V:1
 z8 |!f! E2 D2 (CD)(CG,) | B,2 A,2 (G,A,)(G,E,) | G,2 F,2 (E,F,)(E,C,) | E,2 D,2 C,4 | %5
!mp! (E2 D2) (CDCG,) | (B,2 A,2) (G,A,G,E,) | (G,2 F,2) (E,F,E,C,) | (E,2 D,2) C,4 | %9
 G,2 G,3 (G,A,C) | =B,2 B,3 (CEA) |!<(! G3 G!<)!!f! (BA)(GF) |!>(! (E3 C) B,4!>)! | %13
!mp! B,2 B,3 (A,G,F,) | F2 F3 (EDC) |!ff! ^F2 GG, F2 GG, | ^F2!>(! G6!>)! |!mp! (E2 D2) (CDCG,) | %18
 (B,2 A,2) (G,A,G,E,) | (G,2 F,2) (E,F,E,C,) | (E,2 D,2) C,4 | (E,2 D,2) C,4 | %22
 z4!p! (A,,B,,A,,E,,) | (A,,B,,A,,E,,) (B,,C,B,,=A,,) | (G,,=A,,B,,_A,,) (G,,E,,) A,,2 | %25
 (_D,E,D,E,,) (C,D,C,E,,) | (_D,E,D,E,,) (C,D,C,E,,) | (F,G,F,B,,) (G,A,G,B,,) | %28
 (=A,_A,G,B,,) (=A,_A,G,F,) | z/!mp! E_DE/(3(C/D/E/) (E/G,)(A,G,/)(3(F,/C/F/) | %30
 (F/B,C/) (3(_D/C/D/)(3(=D/^C/D/) (E>B,) (_D=C) | %31
 z/ (=A,C/) (3(A,/B,/C/(3_D/E/F/) (F/=DF/) (3(D/E/F/(3G/A/C/) | %32
 (C/=A,B,/) (3(D/E/)G/(3A/c/C/!<(! (C/B,=B,/) (3(C/B,/C/)(3(=E/F/G/)!<)! | %33
!f! (A/B/)(A/A,/) (3(C/D/C/)(3(A,/F,/C,/) (E,/F,/)(E,/^F,,/) (3(C,/D,/C,/)(3(E,,/D,,/C,,/) | %34
 G,,2 z2 (6:4:6(G/4A/4G/4)(D/4E/4D/4)(6:4:6(G,/4A,/4G,/4)(D,/4E,/4D,/4) (6:4:6(G,,/4A,,/4G,,/4)(D,/4E,/4D,/4)(6:4:6(G,/4A,/4G,/4)(D/4E/4D/4) | %35
 G z z2 (6:4:6(G/4A/4G/4)(_D/4E/4D/4)(6:4:6(G,/4A,/4G,/4)(_D,/4E,/4D,/4) (6:4:6(G,,/4A,,/4G,,/4)(D,/4E,/4D,/4)(6:4:6(G,/4A,/4G,/4)(D/4E/4D/4) | %36
 G z (6:4:6(A,,/4B,,/4A,,/4B,,/4C,/4D,/4)(6:4:6(=E,/4F,/4G,/4A,/4B,/4C/4) z2 (6:4:6(C,/4=B,,/4C,/4D,/4E,/4D,/4)(6:4:6(F,/4E,/4D,/4C,/4B,,/4C,/4) | %37
 (6:4:6(G,,/4A,,/4G,,/4A,,/4B,,/4C,/4(6:4:6D,/4E,/4F,/4G,/4A,/4G,/4) (6:4:6(F,/4E,/4D,/4E,/4D,/4C,/4(6:4:6B,,/4A,,/4G,,/4A,,/4B,,/4C,/4) (6:4:6(D,/4E,/4F,/4G,/4=A,/4=B,/4)(6:4:6(C/4D/4E/4F/4G/4A/4) (6:4:6(G/4F/4E/4)(D/4E/4F/4)(6:4:6^F/4G/4=A/4=B/4c/4d/4 | %38
 e2 d2 cdcG | B2 A2 GAGE | G2 F2 EFEC | (E2 _D2)!>(! C4!>)! |!mf!!>(! (E,2 _D,2) C,4!>)! | %43
[M:2/4]!p! (E,,2 _D,,2) |[M:4/4] C,,8- | C,,8 | %46
 z/ C_DC/(3(B,/C/D/) (D/E)(F/ (3(F/)G/A/)(3(E/C/A,/) | %47
 G,/A,G,F,/(3G,/A,/B,/ =B,/C(D/ (3(D/)E/C/(3G,/E,/F,/) | %48
 (G,/A,G,)(F,/(3G,/A,/B,/) (=B,/C(D/) (3D/E/C/(3G,/A,/_B,/) | %49
 (=B,/C)(D/ (3(D/)E/C/(3G,/A,/_B,/) (=B,/CG,)(E,D,/) | (=B,,C,) z2 (B,,/C,G,,)(E,,D,,/) | C,,8- | %52
 C,,4 z4 | z8 |] %54
V:2
 (.C,.C,.C,.C, .C,.C,.C,.C,) | (.C,.C,.D,.D, .E,.F,.E,.D,) | %2
 [C,G,][C,G,][C,A,][C,A,] [C,B,][C,B,][B,,G,][B,,G,] | %3
 (.[A,,E,].[A,,E,].[A,,F,].[A,,F,] .G,,.G,,._G,,.G,,) | (.F,,.F,,.=B,,.B,, .C,.C,.C,.C,) | %5
!p! C,,C,,D,,D,, E,,F,,E,,D,, | C,,C,,A,,A,, E,,E,,E,,E,, | =A,,A,,_A,,A,, G,,G,,_G,,G,, | %8
 F,,F,,G,,G,, C,A,G,E, | =B,,B,,C,C, E,D,E,G, |!<(! F,F,=E,E, _E,E,C,C,!<)! | %11
!mf! B,,B,,=A,,A,, _A,,F,,G,,A,, |!>(! _D,C,B,,A,, E,G,^F,=F,!>)! | %13
!p! ^F,F,F,=F, =E,,F,,!<(!G,,A,, | =B,,B,,C,^C, D,E,F,G,!<)! |!mf!!mf! (A,,2 C,)G, (^F,2 E,)D, | %16
!>(! ([C,A,]2 D,)(.G, .G,.G,.G,) z!>)! |!p!!p! C,C,D,D, E,F,E,D, | C,C,A,,A,, E,,E,,E,,E,, | %19
 =A,,A,,_A,,A,, G,,G,,_G,,G,, | F,,F,,G,,G,, A,,B,,A,,E,, | C,2 G,,2 A,,B,,A,,E,, | %22
 A,,B,,A,,E,, E,/4C/4E,/4C/4E,/4C/4E,/4C/4 E,/4C/4E,/4C/4E,/4C/4E,/4C/4 | %23
 z/ (E^CE/)(3(=C/^C/E/) E/G,A,G,/(3(F,/=C/F/) | (F/B,C/) (3(_D/C/D/(3=D/_D/=D/) (E>B, _DC) | %25
 z/ (=A,C/) (3(A,/B,/C/(3^C/E/F/) (F/DF/) (3(D/E/F/(3G/A/=C/) | %26
 (C/=A,C/) (3(A,/B,/C/(3^C/E/F/) F/DF/ (3(D/E/G/(3A/c/=C/) | %27
 (C/=A,C/) (3(A,/B,/D/(3E/F/C/) (C/A,C/) (3(A,/B,/D/(3E/G/G,/) | %28
 (G,/=E,F,/) (3(=A,/B,/D/(3E/G/G,/) (G,/E,F,/) (3(G,/_A,/=A,/(3B,/C/^C/) | %29
 A,,B,,A,,E,, B,,C,B,,=A,, | G,,=A,,B,,_A,, G,,E,, A,,2 | _D,E,D,E,, C,D,C,E,, | %32
 D,_D,C,E,,!<(! =D,_D,C,A,,!<)! |!mf! F,,2 [C,F,] z D,,2 [^F,C] z | %34
 (6:4:6G,/4D,/4G,,/4D,/4G,/4D,/4(6:4:6A,/4D,/4A,,/4D,/4A,/4D,/4 (6:4:6G,/4D,/4G,,/4D,/4G,/4D,/4(6:4:6D,/4G,,/4D,,/4G,,/4D,/4G,,/4 [G,,D,] z z2 | %35
 (6:4:6=E,/4B,,/4E,/4B,,/4E,/4B,,/4(6:4:6F,/4B,,/4F,/4B,,/4F,/4B,,/4 (6:4:6E,/4B,,/4E,/4B,,/4E,/4B,,/4(6:4:6B,/4F,/4B,,/4F,/4B,/4F,/4 [B,,E,] z z2 | %36
 (6:4:6=A,,/4C,,/4A,,/4C,,/4A,,/4C,,/4(6:4:6A,,/4C,/4A,,/4C,/4A,,/4C,/4 _A,,2 (6:4:6G,,/4C,,/4G,,/4C,,/4G,,/4C,,/4(6:4:6G,,/4C,/4G,,/4C,/4G,,/4C,/4 [^F,,C,] z | %37
 [G,D] z z2 [CG] z z2 | C,/(A,/G,/F,/) D,/(A,/G,/F,/) E,/(A,/G,/F,/) E,/(A,/G,/F,/) | %39
 C,/(F,/E,/D,/) C,/(F,/E,/D,/) C,/(F,/E,/D,/) B,,/(F,/E,/D,/) | %40
 A,,/(D,/C,/B,,/) A,,/(D,/C,/B,,/) G,,/(D,/C,/B,,/) ^F,,/(D,/C,/B,,/) | %41
 (C,/_D,/C,/A,,/) (D,/E,/D,/A,,/) (A,,/F,/E,/D,/) (E,/F,/E,/D,/) | %42
!>(! (F,,/_D,/C,/A,,/) (D,/E,/D,/A,,/) (A,,/F,/E,/D,/ E,/F,/E,/D,/)!>)! | %43
[M:2/4]!p!!p! E,,/_D,/C,/G,,/ B,,/C,/B,,/F,,/ | %44
[M:4/4] z/ (C^C=C/(3B,/C/^C/) (C/EF/) (3(F/G/A/(3E/=C/A,/) | %45
 z/ (B,=B,_B,/(3A,/B,/=B,/) (B,/^C(E/) (3(E/)F/^F/(3C/_B,/^F,/) | C,(C,B,,^C,) =C,(^C,=C,A,,) | %47
 C,,(F,,A,,G,,) C,,(A,,^F,,G,,) | C,,(F,,A,,G,,) C,,(A,,^F,,G,,) |!pp! C,,(A,,^F,,G,,) C,, z z2 | %50
 (D/ECG,F,/) (D,E,) z2 | z2 [C,G,]4 [C,,G,,]2 | [G,,E,C]4 z4 | z8 |] %54

